X:1
T:Domine Non Sum Dignus
T:Richard Dering (c1580-1639)
T:Matthew 8 : 8 Contrafactum of "Lagrime Dolci e Care"
T:Domine Non Sum Dignus
C:Richard Dering
%%score [ 1 2 3 4 ]
L:1/8
Q:1/4=120
M:2/2
K:Ab
V:1 treble nm="Soprano" snm="S"
V:2 treble nm="Alto" snm="A"
V:3 treble-8 nm="Tenor" snm="T"
V:4 bass nm="Bass" snm="B"
V:1
 c6 F2 | F8- | F4- F3 z | d8- | d4 c4 | c8 | d4 c4 | G8 | =A4- A3 z | c2 e2 d2 cB | c2 d2 e4- | %11
w: Do- mi-|ne,|_ _|Do-|* mi-|ne|non sum|di-|gnus, _|Do- * * mi- *|ne _ non|
 e2 dc f2 c2 | d8 | c4- c3 z | F6 G2 | G4- G3 z | c6 e2 | =d4- d3 z | z4 e4 | f6 c2 | c8 | %21
w: _ _ _ _ sum|di-|gnus, _|Do- mi-|ne, _|Do- mi-|ne _|non|_ sum|di-|
 B4- B z B2 | A2 GF G2 A2 | B8- | B2 AG A2 B z | c8- | c2 A2 B4- | B2 G2 A4- | A z z2 z4 | z8 | %30
w: gnus, _ ut|in- tres _ sub _|tec-|* * * * tum|me-||* * um.|_||
 z8 | z4 B4- | B4 F4 | F8- | F4- F3 z | c8- | c4 B2 A2 | B8 | G2 c2 A2 B2 | G8 | =A8 | %41
w: |Do-|* mi-|ne,|_ _|Do-|* * mi-|ne|non _ _ sum|di-|gnus,|
 z ccc c2 A2 | B4 B4 | z eee e2 d2 | c4 c3 z | z4 c2 d2 | e3 d c2 f2- | fedc B2 B2 | c4- c3 z | %49
w: sed tan- tum dic _|ver- bum|sed tan- tum dic _|ver- bum|et sa-|na- * * *|* * * * * bi-|tur, _|
 z8 | z8 | z8 | z4 c2 d2 | e3 d B2 e2- | edcB A3 z | B2 c3 c B2 | cG c2- ccBA | G8 | =A8 |] %59
w: |||et sa-|na- * * *|* * * bi- tur,|sa- na- bi- tur|a- * * * ni- ma _|me-|a.|
V:2
 z8 | D6 C2 | C4- C3 z | z8 | G4 A4- | A2 A2 G4 | B4 F4 | =E2 F4 E2 | F4- F3 z | %9
w: |Do- mi-|ne, _||Do- *|* mi- ne|non sum|di- * *|gnus, _|
 !courtesy!_A2 B4 FG | A2 F2 G4- | G2 FE F2 F2 | F8 | F4- F3 z | z4 =D4- | D2 F2 =E3 z | %16
w: Do- * mi- *|ne _ non|_ _ _ _ sum|di-|gnus, _|Do-|* mi- ne,|
 z4 !courtesy!_A4- | A2 c2 =B3 z | G4 A4- | A2 F2 B4- | B4 =A4 | B3 z F2 G2 | F2 ED E2 F2 | G8- | %24
w: Do-|* mi- ne|non _|_ sum di-||gnus, ut _|in- tres _ sub _|tec-|
 G2 FE F2 G z | A8- | A2 F2 G4- | G2 E2 F4- | F z F2 G4- | G2 F2 E4 | EDEB, C4 | B,8 | z4 D4- | %33
w: * * * * tum|me-||* * um|_ sed tan-|* * tum|dic _ _ _ ver-|bum|Do-|
 D4 C4 | C4- C3 z | z8 | F8- | F4 E2 D2 | =E4 F4 | F4 =E4 | F8 | z !courtesy!_AAA A2 c2 | G4 G4 | %43
w: * mi-|ne, _||Do-|* mi- ne|non sum|di- *|gnus,|sed tan- tum dic _|ver- bum|
 z GGG A4 | A4 A3 z | E2 F2 G3 F | E2 A2- AGFE | F6 F2 | =E3 z F2 G2 | A3 G E2 A2- | AGFE F4- | %51
w: sed tan- tum dic|ver- bum|et sa- na- *||* bi-|tur a- *|* ni- ma me-||
 F4 E4 | F z =G2 A3 F | G6 c2- | cBAG F3 z | F2 A3 A GF | =E2 A2- AAGF | =E2 F4 E2 | F8 |] %59
w: |a, sa- na- *||* * bi- * tur,|sa- na- bi- tur _|a- * * ni- ma _|me- * *|a.|
V:3
 z8 | =A4 B4- | B2 B2 =A3 z | z8 | e4 f4- | f2 f2 =e4 | f6 c2 | c8 | c4- c3 z | f2 e2 f2 fB | %10
w: |Do- *|* mi- ne,||Do- *|* mi- ne|non sum|di-|gnus, _|Do- * * mi- *|
 f4 e2 d2 | c8- | c2 B2 B4- | B4 =A3 z | z4 B4- | B2 =A2 c3 z | z4 f4- | f2 e2 g3 z | z4 e4 | %19
w: ne non _|_|* sum di-|* gnus,|Do-|* mi- ne,|Do-|* mi- ne|non|
 d2 c2 f4- | f2 ed c4 | =d3 z _d2 e2 | d4 c4 | B2 AG A2 B2 | c8- | c2 BA B2 c2 | d6 B2 | c4 c4- | %28
w: _ sum di-||gnus, ut _|in- tres|sub _ _ tec- tum|me-|* um _ tec- tum|me- *|* um,|
 c z =d2 e4- | e2 !courtesy!_d2 c2 B2 | cA B4 =A2 | B8 | z4 F4- | F4 F4 | F4- F3 z | %35
w: _ sed tan-|* * tum _|dic _ ver- *|bum|Do-|* mi-|ne, _|
 !courtesy!_A8- | A4 G2 F2 | G8 | G2 A2 c2 F2 | G2 AB c4 | c8 | z ccc c4 | e4 e4 | z eee e2 f2 | %44
w: Do-|* * mi-|ne|non _ _ sum|di- * * *|gnus,|sed tan- tum dic|ver- bum|sed tan- tum dic _|
 e4 e3 z | c2 d2 e3 d | c2 f2- fedc | d6 d2 | c4- c3 z | A2 B2 c3 B | A2 d2- dcBA | B8 | A4- A3 z | %53
w: ver- bum|et sa- na- *||* bi-|tur _|a- * * ni-|ma me- * * * *||a, _|
 E2 F2 G3 F | E2 A2- AGFE | F4 F3 z | Gc _e2- ee=dc | c2 BA c4 | c8 |] %59
w: et sa- na- bi-|tur a- * ni- ma _|me- a,|a- * * * ni- ma _|me- * * *|a.|
V:4
 z8 | F,6 F,2 | F,4- F,3 z | z8 | E,6 A,,2 | C,8 | B,,4 =A,,4 | C,8 | F,4- F,3 z | %9
w: |Do- mi-|ne, _||Do- mi-|ne|non sum|di-|gnus, _|
 F,2 G,2 B,2 A,G, | F,E, D,2 C,2 B,,2 | =A,,6 A,,2 | B,,8 | F,4- F,3 z | z8 | C,6 B,,2 | =A,,4 z4 | %17
w: Do- * * mi- *|ne _ _ non _|_ sum|di-|gnus, _||Do- mi-|ne|
 z8 | z4 C,4 | D,6 E,2 | F,8 | B,,8 | z8 | z8 | z8 | z8 | z8 | z4 z2 A,2 | B,4 B,2 G,2 | A,6 G,2 | %30
w: |non|sum _|di-|gnus,||||||sed|tan- tum dic|ver- *|
 F,8 | B,,8 | z4 B,,4- | B,,4 =A,,4 | =A,,4- A,,3 z | z8 | D,8- | D,4 C,2 B,,2 | C,4 C,4 | C,8 | %40
w: |bum|Do-|* mi-|ne, _||Do-|* mi- ne|non sum|di-|
 F,8 | z F,F,F, F,2 A,2 | E,4 E,4 | z E,E,E, C,2 D,2 | A,,4 A,,3 z | z8 | z8 | z8 | z8 | %49
w: gnus,|sed tan- tum dic _|ver- bum|sed tan- tum dic _|ver- bum|||||
 F,2 G,2 A,3 G, | F,2 B,2- B,A,_G,F, | _G,8 | F,4- F,3 z | C,2 D,2 E,3 D, | C,2 F,2- F,E,D,C, | %55
w: a- * * ni-|ma me- * * * *||a, _|et sa- na- bi-|tur a- * ni- ma _|
 D,4 D,3 z | C,3 C, A,,4 | C,8 | F,,8 |] %59
w: me- a,|a- ni- ma|me-|a.|

